libs/ui/packages/crypto-icons/src/svg/XAS.svg

<svg width="24" height="24" viewBox="0 0 24 24" fill="none">
<path d="M19.494 10.8532L12.3923 19.1108L12.0735 19.5L4.50525 10.9365L4.52925 10.9268L4.5 10.9222L7.4415 6.0045L7.443 6.006L7.4415 6H16.632L16.6305 6.00525L19.5 10.8525L19.494 10.8532ZM9.642 11.1975L8.0145 13.953L12.0285 18.537L16.0507 13.9155L14.4592 11.1892L9.642 11.1975ZM7.5585 13.4325L8.8785 11.1982L5.607 11.2035L7.5585 13.4325ZM14.8507 10.548L18.5662 10.542L16.2338 6.636L12.5723 6.6435L14.8507 10.548ZM18.429 11.1825L15.2242 11.1877L16.509 13.389L18.429 11.1825ZM14.0858 10.5495L12.0675 7.0905L10.02 10.5555L14.0858 10.5495ZM7.7865 6.654L5.4615 10.5638L9.2565 10.557L11.5665 6.6465L7.7865 6.654Z" fill="white"/>
<path d="M19.494 10.1032L12.3923 18.3608L12.0735 18.75L4.50525 10.1865L4.52925 10.1768L4.5 10.1722L7.4415 5.2545L7.443 5.256L7.4415 5.25H16.632L16.6305 5.25525L19.5 10.1025L19.494 10.1032ZM9.642 10.4475L8.0145 13.203L12.0285 17.787L16.0507 13.1655L14.4592 10.4392L9.642 10.4475ZM7.5585 12.6825L8.8785 10.4482L5.607 10.4535L7.5585 12.6825ZM14.8507 9.798L18.5662 9.792L16.2338 5.886L12.5723 5.8935L14.8507 9.798ZM18.429 10.4325L15.2242 10.4377L16.509 12.639L18.429 10.4325ZM14.0858 9.7995L12.0675 6.3405L10.02 9.8055L14.0858 9.7995ZM7.7865 5.904L5.4615 9.81375L9.2565 9.807L11.5665 5.8965L7.7865 5.904Z" fill="#FAA00D"/>
</svg>

<svg width="24" height="24" viewBox="0 0 24 24" fill="none"><path fill="#fff" d="m19.494 10.853-7.102 8.258-.319.389-7.568-8.563.024-.01-.029-.005 2.941-4.917.002.001L7.441 6h9.191l-.002.005 2.87 4.847zm-9.852.345-1.627 2.755 4.013 4.584 4.023-4.621-1.592-2.727zm-2.083 2.234 1.32-2.234-3.272.005zm7.292-2.884 3.715-.006-2.332-3.906-3.662.008zm3.578.634-3.205.006 1.285 2.201zm-4.343-.633-2.018-3.458-2.048 3.465zm-6.3-3.895-2.324 3.91 3.795-.007 2.31-3.91z"/><path fill="#faa00d" d="m19.494 10.103-7.102 8.258-.319.389-7.568-8.563.024-.01-.029-.005 2.941-4.917.002.001-.002-.006h9.191l-.002.005 2.87 4.847zm-9.852.345-1.627 2.755 4.013 4.584 4.023-4.621-1.592-2.727zm-2.083 2.234 1.32-2.234-3.272.005zm7.292-2.884 3.715-.006-2.332-3.906-3.662.008zm3.578.634-3.205.006 1.285 2.201zM14.086 9.8l-2.018-3.458-2.048 3.465zm-6.3-3.895-2.324 3.91 3.795-.007 2.31-3.91z"/></svg>
